X:271
T: ICH BIN EIN FREIER MANN UND SINGE
N: B0321
O: Europa, Mitteleuropa, Deutschland
R: Geselligkeits - Lied, Freude
M: 4/4
L: 1/16
K: Bb
F4 | B6B2c3cB2c2 | d4B4z4
A2G2 | F6F2E3EF3E | D4z8
D4 | G6G2A3AG2A2 | B4G4z4
d4 | c6A2B3AB3G | F4z8
F4 | c6c2B3AG3F | F4B4z4
B2A2 | G6A2B3AB3c | d8z2
d2d2c2 | B4F4G4F4 | E4c4z2
c2c3B | A4e4d4c4 | f8z2
e2d3c | B6B2c4A4 | B8z4

@@@ Tune index: 2074
